X: 0013
T: 497. Skrikegubbens Polska efter B\"ake Halvar
O: efter Lars \AAhs
%R: polska
B: Paul B\"ackstr\"om's "L\aatar fr\aan Dalarna" collection" 1974
Z: 2022 John Chambers <jc:trillian.mit.edu>
M: 3/4
L: 1/16
% %text S.L.
Q: 1/4=120
K: Am
%%slurgraces 1
%%graceslurs 1
% - - - - - - - - - -
|:["bis" {B}A3^G A3c e2f2 | agfe d3e c4 :| {c}A3c B2Ac B3G |[1 A2cB A3B G4 :|[2 A2Bc [A8A8] ||
|::: B4 d3c AcBG | A2Bc A2BA G4 | B4 d3c AcBG |[1,3 A2Bc [e8e8] :|[2,4 A2Bc [A8A8] :|
N: The original has the 2nd line twice, differing only in the last note.
% - - - - - - - - - -
%%text Jmf S.L.687 K.E.F.nr 15
